logos/aws-step-functions.svg

<?xml version="1.0" encoding="UTF-8"?>
<svg width="256px" height="256px" viewBox="0 0 256 256" version="1.1" xmlns="http://www.w3.org/2000/svg" xmlns:xlink="http://www.w3.org/1999/xlink" preserveAspectRatio="xMidYMid">
    <title>AWS Step Functions</title>
    <defs>
        <linearGradient x1="0%" y1="100%" x2="100%" y2="0%" id="linearGradient-1">
            <stop stop-color="#B0084D" offset="0%"></stop>
            <stop stop-color="#FF4F8B" offset="100%"></stop>
        </linearGradient>
    </defs>
    <g>
        <rect fill="url(#linearGradient-1)" x="0" y="0" width="256" height="256"></rect>
        <path d="M144,140.8 L211.2,140.8 L211.2,118.4 L144,118.4 L144,140.8 Z M214.4,112 L140.8,112 C139.0304,112 137.6,113.4336 137.6,115.2 L137.6,144 C137.6,145.7664 139.0304,147.2 140.8,147.2 L214.4,147.2 C216.1696,147.2 217.6,145.7664 217.6,144 L217.6,115.2 C217.6,113.4336 216.1696,112 214.4,112 L214.4,112 Z M139.2,200 C139.2,206.176 134.176,211.2 128,211.2 C121.824,211.2 116.8,206.176 116.8,200 C116.8,193.824 121.824,188.8 128,188.8 C134.176,188.8 139.2,193.824 139.2,200 L139.2,200 Z M44.8,150.4 L102.4,150.4 L102.4,137.6 L44.8,137.6 L44.8,150.4 Z M44.8,118.4 L102.4,118.4 L102.4,105.6 L44.8,105.6 L44.8,118.4 Z M116.8,56 C116.8,49.824 121.824,44.8 128,44.8 C134.176,44.8 139.2,49.824 139.2,56 C139.2,62.176 134.176,67.2 128,67.2 C121.824,67.2 116.8,62.176 116.8,56 L116.8,56 Z M179.2,169.6 L76.8,169.6 L76.8,156.8 L105.6,156.8 C107.3696,156.8 108.8,155.3664 108.8,153.6 L108.8,134.4 C108.8,132.6336 107.3696,131.2 105.6,131.2 L76.8,131.2 L76.8,124.8 L105.6,124.8 C107.3696,124.8 108.8,123.3664 108.8,121.6 L108.8,102.4 C108.8,100.6336 107.3696,99.2 105.6,99.2 L76.8,99.2 L76.8,89.6 L179.2,89.6 L179.2,102.4 L185.6,102.4 L185.6,86.4 C185.6,84.6336 184.1696,83.2 182.4,83.2 L131.2,83.2 L131.2,73.2928 C139.3792,71.7824 145.6,64.6112 145.6,56 C145.6,46.2944 137.7024,38.4 128,38.4 C118.2976,38.4 110.4,46.2944 110.4,56 C110.4,64.6112 116.6208,71.7824 124.8,73.2928 L124.8,83.2 L73.6,83.2 C71.8304,83.2 70.4,84.6336 70.4,86.4 L70.4,99.2 L41.6,99.2 C39.8304,99.2 38.4,100.6336 38.4,102.4 L38.4,121.6 C38.4,123.3664 39.8304,124.8 41.6,124.8 L70.4,124.8 L70.4,131.2 L41.6,131.2 C39.8304,131.2 38.4,132.6336 38.4,134.4 L38.4,153.6 C38.4,155.3664 39.8304,156.8 41.6,156.8 L70.4,156.8 L70.4,172.8 C70.4,174.5664 71.8304,176 73.6,176 L124.8,176 L124.8,182.7072 C116.6208,184.2176 110.4,191.3888 110.4,200 C110.4,209.7056 118.2976,217.6 128,217.6 C137.7024,217.6 145.6,209.7056 145.6,200 C145.6,191.3888 139.3792,184.2176 131.2,182.7072 L131.2,176 L182.4,176 C184.1696,176 185.6,174.5664 185.6,172.8 L185.6,156.8864 L179.2,156.8864 L179.2,169.6 Z" fill="#FFFFFF"></path>
    </g>
</svg>

<svg preserveAspectRatio="xMidYMid" viewBox="0 0 256 256" xmlns="http://www.w3.org/2000/svg">
  <defs>
    <linearGradient id="aws-step-functions_svg__a" x1="0%" x2="100%" y1="100%" y2="0%">
      <stop offset="0%" stop-color="#B0084D"/>
      <stop offset="100%" stop-color="#FF4F8B"/>
    </linearGradient>
  </defs>
  <path fill="url(#aws-step-functions_svg__a)" d="M0 0h256v256H0z"/>
  <path fill="#FFF" d="M144 140.8h67.2v-22.4H144v22.4Zm70.4-28.8h-73.6a3.2 3.2 0 0 0-3.2 3.2V144a3.2 3.2 0 0 0 3.2 3.2h73.6a3.2 3.2 0 0 0 3.2-3.2v-28.8a3.2 3.2 0 0 0-3.2-3.2Zm-75.2 88c0 6.176-5.024 11.2-11.2 11.2-6.176 0-11.2-5.024-11.2-11.2 0-6.176 5.024-11.2 11.2-11.2 6.176 0 11.2 5.024 11.2 11.2Zm-94.4-49.6h57.6v-12.8H44.8v12.8Zm0-32h57.6v-12.8H44.8v12.8Zm72-62.4c0-6.176 5.024-11.2 11.2-11.2 6.176 0 11.2 5.024 11.2 11.2 0 6.176-5.024 11.2-11.2 11.2-6.176 0-11.2-5.024-11.2-11.2Zm62.4 113.6H76.8v-12.8h28.8a3.2 3.2 0 0 0 3.2-3.2v-19.2a3.2 3.2 0 0 0-3.2-3.2H76.8v-6.4h28.8a3.2 3.2 0 0 0 3.2-3.2v-19.2a3.2 3.2 0 0 0-3.2-3.2H76.8v-9.6h102.4v12.8h6.4v-16a3.2 3.2 0 0 0-3.2-3.2h-51.2v-9.907c8.18-1.51 14.4-8.682 14.4-17.293 0-9.706-7.898-17.6-17.6-17.6-9.702 0-17.6 7.894-17.6 17.6 0 8.611 6.22 15.782 14.4 17.293V83.2H73.6a3.2 3.2 0 0 0-3.2 3.2v12.8H41.6a3.2 3.2 0 0 0-3.2 3.2v19.2a3.2 3.2 0 0 0 3.2 3.2h28.8v6.4H41.6a3.2 3.2 0 0 0-3.2 3.2v19.2a3.2 3.2 0 0 0 3.2 3.2h28.8v16a3.2 3.2 0 0 0 3.2 3.2h51.2v6.707c-8.18 1.51-14.4 8.682-14.4 17.293 0 9.706 7.898 17.6 17.6 17.6 9.702 0 17.6-7.894 17.6-17.6 0-8.611-6.22-15.782-14.4-17.293V176h51.2a3.2 3.2 0 0 0 3.2-3.2v-15.914h-6.4V169.6Z"/>
</svg>
